X:371
T: Wenn ich schon kein Schatz mehr hab' (4-70), S. 90
N: P0641
O: Lothringen
S: PINCK, Louis: Verklingende Weisen Bd 4, Kassel 1939]
R: ???, Liebe]
M: 4/4
L: 1/16
K: G
D2D2 | G4B4B4A2G2 | A12
G2B2 | d3dd2d2c4d4 | B12
d2d2 | B4d4d3dd2e2 | d4c2B2c4
c2c2 | A4c4c2c2c2d2 | c4B2A2d4
G2B2 | d2d2G4A4B4 | G12

@@@ Tune index: 7921
